X: 31068
T: Paddy Cronin's
R: polka
M: 2/4
K: Ddorian
d/e/d/c/|:AD ED|dB c2|AD ED/E/|GE CE/G/|
AD ED|dB c2|A/B/c/A/ GC|1 ED D>G:|2 ED D>d||
Ad ed|ad e/g/e/d/|Ad ed/e/|gc ce/c/|
Ad ed|ad e/g/e/d/|AB/A/ GC|ED D>G|
Ad ed|ad e/g/e/d/|Ad ed/e/|gc c2|
ab/a/ ge|fd ec|A2 A/B/A/G/|Ad d/e/d/c/||

